Costumes/A-story-3.svg

<?xml version="1.0" encoding="utf-8"?>
<!-- Generator: Adobe Illustrator 18.0.0, SVG Export Plug-In . SVG Version: 6.00 Build 0)  -->
<!DOCTYPE svg PUBLIC "-//W3C//DTD SVG 1.1//EN" "http://www.w3.org/Graphics/SVG/1.1/DTD/svg11.dtd">
<svg version="1.1" id="Layer_2" xmlns="http://www.w3.org/2000/svg" xmlns:xlink="http://www.w3.org/1999/xlink" x="0px" y="0px"
	 viewBox="0 0 45.8 49.1" enable-background="new 0 0 45.8 49.1" xml:space="preserve">
<g>
	<path fill="#41A2F2" d="M45.7,46.9c-0.2-0.7-0.6-0.6-1.1-0.5c-0.9,0.1-1.8-0.1-2.3-0.9c-0.7-1.1-1.3-2.2-1.8-3.4
		c-0.4-0.8-0.5-1.6-0.8-2.5c-0.8-2.4-1.6-4.9-2.4-7.3c-0.4-1.2-1-2.4-1.4-3.7c-1-2.6-1.9-5.2-2.9-7.8c-0.2-0.7-0.4-1.4-0.6-2
		c-0.3-1.2-0.6-2.4-1-3.6c-0.3-1-0.9-2-1.2-3c-0.8-2.7-1.6-5.5-2.3-8.3c-0.4-1.5-1.1-2.6-2.6-3.1c-0.8-0.2-1.5-0.6-2.2-0.8
		c-0.4,0.9-0.7,1.6-1,2.4c-0.9,2.4-1.8,4.8-2.7,7.2c-1.6,4.4-3.3,8.9-4.9,13.3c-0.9,2.5-1.9,4.9-2.8,7.4c-0.3,0.9-0.6,1.9-1,2.8
		c-1.4,3.5-2.8,7-4.4,10.5c-0.5,1.2-1.2,2.4-2.7,2.8c-0.9,0.2-1.8,0.2-2.7,0.2c-0.6,0-0.8,0.2-0.9,0.7c-0.2,0.9,0.2,1.4,1.1,1.5
		C5.4,48.9,9.7,49,14,49.1c0.4,0,1-0.2,1.3-0.5c0.3-0.3,0.4-0.9,0.3-1.3c0-0.2-0.5-0.5-0.8-0.6c-0.9-0.2-1.8-0.3-2.6-0.4
		c-0.5-0.1-1-0.3-1.4-0.5c-0.5-0.2-0.6-0.7-0.5-1.2c0.5-1.4,1-2.9,1.6-4.3c1.2-2.6,2.1-5.4,2.8-8.2c0.2-0.6,0.4-0.7,1-0.7
		c3.6,0.1,7.2,0.2,10.7,0.4c1,0,2.1,0.1,3.1,0.1c0.6,0,1,0.3,1.2,0.9c0.6,1.9,1.3,3.9,2,5.8c0.5,1.5,1.1,3,1.6,4.5
		c0.5,1.5,0,2.6-1.4,3c-0.6,0.2-1.2,0.4-1.8,0.5c-0.6,0.1-0.7,0.5-0.7,1c0,0.5,0.2,0.9,0.8,0.8c0.7,0,1.4,0,2.1,0
		c3.1,0.1,6.1,0.2,9.2,0.2c0.9,0,1.7-0.1,2.6-0.3C45.8,48.3,45.9,47.7,45.7,46.9z M28.2,27.5H17c1.6-5.4,3.8-10.6,5.8-15.8
		c0.1,0,0.2-0.1,0.3-0.1C24.8,16.9,26.5,22.2,28.2,27.5z"/>
</g>
</svg>

<?xml version="1.0" encoding="UTF-8" standalone="no"?>
<!-- Generator: Adobe Illustrator 18.0.0, SVG Export Plug-In . SVG Version: 6.00 Build 0)  -->

<svg
   version="1.1"
   id="Layer_2"
   x="0px"
   y="0px"
   viewBox="0 0 45.84147 49.1"
   enable-background="new 0 0 45.8 49.1"
   xml:space="preserve"
   sodipodi:docname="A-story-3.svg"
   width="45.841469"
   height="49.099998"
   xmlns:inkscape="http://www.inkscape.org/namespaces/inkscape"
   xmlns:sodipodi="http://sodipodi.sourceforge.net/DTD/sodipodi-0.dtd"
   xmlns="http://www.w3.org/2000/svg"
   xmlns:svg="http://www.w3.org/2000/svg"><defs
   id="defs9" /><sodipodi:namedview
   id="namedview7"
   pagecolor="#ffffff"
   bordercolor="#000000"
   borderopacity="0.25"
   inkscape:showpageshadow="2"
   inkscape:pageopacity="0.0"
   inkscape:pagecheckerboard="0"
   inkscape:deskcolor="#d1d1d1" />
<g
   id="g4"
   transform="translate(0.05047288)">
	<path
   fill="#41a2f2"
   d="M 45.7,46.9 C 45.5,46.2 45.1,46.3 44.6,46.4 43.7,46.5 42.8,46.3 42.3,45.5 41.6,44.4 41,43.3 40.5,42.1 40.1,41.3 40,40.5 39.7,39.6 38.9,37.2 38.1,34.7 37.3,32.3 36.9,31.1 36.3,29.9 35.9,28.6 34.9,26 34,23.4 33,20.8 c -0.2,-0.7 -0.4,-1.4 -0.6,-2 -0.3,-1.2 -0.6,-2.4 -1,-3.6 -0.3,-1 -0.9,-2 -1.2,-3 C 29.4,9.5 28.6,6.7 27.9,3.9 27.5,2.4 26.8,1.3 25.3,0.8 24.5,0.6 23.8,0.2 23.1,0 c -0.4,0.9 -0.7,1.6 -1,2.4 -0.9,2.4 -1.8,4.8 -2.7,7.2 -1.6,4.4 -3.3,8.9 -4.9,13.3 -0.9,2.5 -1.9,4.9 -2.8,7.4 -0.3,0.9 -0.6,1.9 -1,2.8 -1.4,3.5 -2.8,7 -4.4,10.5 -0.5,1.2 -1.2,2.4 -2.7,2.8 -0.9,0.2 -1.8,0.2 -2.7,0.2 -0.6,0 -0.8,0.2 -0.9,0.7 -0.2,0.9 0.2,1.4 1.1,1.5 4.3,0.1 8.6,0.2 12.9,0.3 0.4,0 1,-0.2 1.3,-0.5 0.3,-0.3 0.4,-0.9 0.3,-1.3 0,-0.2 -0.5,-0.5 -0.8,-0.6 -0.9,-0.2 -1.8,-0.3 -2.6,-0.4 -0.5,-0.1 -1,-0.3 -1.4,-0.5 -0.5,-0.2 -0.6,-0.7 -0.5,-1.2 0.5,-1.4 1,-2.9 1.6,-4.3 1.2,-2.6 2.1,-5.4 2.8,-8.2 0.2,-0.6 0.4,-0.7 1,-0.7 3.6,0.1 7.2,0.2 10.7,0.4 1,0 2.1,0.1 3.1,0.1 0.6,0 1,0.3 1.2,0.9 0.6,1.9 1.3,3.9 2,5.8 0.5,1.5 1.1,3 1.6,4.5 0.5,1.5 0,2.6 -1.4,3 -0.6,0.2 -1.2,0.4 -1.8,0.5 -0.6,0.1 -0.7,0.5 -0.7,1 0,0.5 0.2,0.9 0.8,0.8 0.7,0 1.4,0 2.1,0 3.1,0.1 6.1,0.2 9.2,0.2 0.9,0 1.7,-0.1 2.6,-0.3 0.7,0 0.8,-0.6 0.6,-1.4 z M 28.2,27.5 H 17 c 1.6,-5.4 3.8,-10.6 5.8,-15.8 0.1,0 0.2,-0.1 0.3,-0.1 1.7,5.3 3.4,10.6 5.1,15.9 z"
   id="path2" />
</g>
</svg>
